packages/axiom-materials/src/icon_svgs/filter-line.svg

<svg height="16" viewBox="0 0 16 16" width="16" xmlns="http://www.w3.org/2000/svg"><path d="m8 8v2h-4v-2zm2-4v2h-8v-2zm2-4v2h-12v-2z" fill-rule="evenodd" transform="translate(2 3)"/></svg>

<?xml version="1.0" encoding="UTF-8"?>
<svg width="16px" height="16px" viewBox="0 0 16 16" version="1.1" xmlns="http://www.w3.org/2000/svg" xmlns:xlink="http://www.w3.org/1999/xlink">
    <!-- Generator: Sketch 59.1 (86144) - https://sketch.com -->
    <title>Filter-line</title>
    <desc>Created with Sketch.</desc>
    <defs>
        <path d="M8,8 L8,10 L4,10 L4,8 L8,8 Z M10,4 L10,6 L2,6 L2,4 L10,4 Z M12,0 L12,2 L0,2 L0,0 L12,0 Z" id="path-1"></path>
    </defs>
    <g id="Filter-line" stroke="none" stroke-width="1" fill="none" fill-rule="evenodd">
        <g id="Icon/Filter-line-Icon">
            <g id="Symbols---Icon---Filter-line-Icon" transform="translate(2.000000, 3.000000)">
                <mask id="mask-2" fill="white">
                    <use xlink:href="#path-1"></use>
                </mask>
                <use id="Icon" fill="#000000" xlink:href="#path-1"></use>
            </g>
        </g>
    </g>
</svg>
